assets/icons/plus-icon.svg

<svg width="112" height="112" viewBox="0 0 112 112" fill="none" xmlns="http://www.w3.org/2000/svg">
<path d="M104.276 48.2759H63.7241V7.72414C63.7241 3.47586 60.2483 0 56 0C51.7517 0 48.2759 3.47586 48.2759 7.72414V48.2759H7.72414C3.47586 48.2759 0 51.7517 0 56C0 60.2483 3.47586 63.7241 7.72414 63.7241H48.2759V104.276C48.2759 108.524 51.7517 112 56 112C60.2483 112 63.7241 108.524 63.7241 104.276V63.7241H104.276C108.524 63.7241 112 60.2483 112 56C112 51.7517 108.524 48.2759 104.276 48.2759Z" fill="#231F20" fill-opacity="0.12"/>
</svg>

<svg width="112" height="112" fill="none" xmlns="http://www.w3.org/2000/svg"><path d="M104.276 48.276H63.724V7.724C63.724 3.476 60.248 0 56 0s-7.724 3.476-7.724 7.724v40.552H7.724C3.476 48.276 0 51.752 0 56s3.476 7.724 7.724 7.724h40.552v40.552c0 4.248 3.476 7.724 7.724 7.724s7.724-3.476 7.724-7.724V63.724h40.552c4.248 0 7.724-3.476 7.724-7.724s-3.476-7.724-7.724-7.724z" fill="#231F20" fill-opacity=".12"/></svg>
